public/icons/admin/announcement.svg

<svg width="17" height="20" viewBox="0 0 17 20" fill="none" xmlns="http://www.w3.org/2000/svg">
<path id="Vector" d="M16.6426 13.8085C16.5692 13.7192 16.4971 13.6299 16.4263 13.5438C15.4532 12.3558 14.8644 11.6388 14.8644 8.27589C14.8644 6.53482 14.4517 5.10625 13.6383 4.03482C13.0385 3.2433 12.2277 2.64286 11.159 2.19911C11.1452 2.19139 11.133 2.18126 11.1227 2.1692C10.7383 0.870089 9.68647 0 8.50012 0C7.31378 0 6.26235 0.870089 5.87796 2.16786C5.8677 2.17948 5.85559 2.18928 5.84213 2.19688C3.34824 3.23304 2.13625 5.22098 2.13625 8.27455C2.13625 11.6388 1.54838 12.3558 0.57436 13.5424C0.503586 13.6286 0.431485 13.7161 0.358058 13.8071C0.168385 14.038 0.0482111 14.3189 0.0117593 14.6165C-0.0246924 14.9141 0.0241033 15.2161 0.152372 15.4866C0.425292 16.067 1.00696 16.4272 1.67091 16.4272H15.3342C15.9951 16.4272 16.5727 16.0674 16.8465 15.4897C16.9754 15.2191 17.0246 14.917 16.9885 14.619C16.9523 14.321 16.8323 14.0397 16.6426 13.8085ZM8.50012 20C9.13931 19.9995 9.76645 19.8244 10.315 19.4932C10.8636 19.1621 11.3131 18.6873 11.6159 18.1192C11.6302 18.092 11.6372 18.0615 11.6364 18.0307C11.6355 17.9999 11.6268 17.9699 11.611 17.9435C11.5953 17.9171 11.573 17.8953 11.5464 17.8802C11.5199 17.865 11.4899 17.8571 11.4593 17.8571H5.54178C5.51123 17.857 5.48117 17.8649 5.45453 17.88C5.42789 17.8951 5.40557 17.9169 5.38976 17.9433C5.37395 17.9697 5.36518 17.9998 5.3643 18.0306C5.36342 18.0614 5.37047 18.0919 5.38476 18.1192C5.68755 18.6872 6.13701 19.162 6.68549 19.4931C7.23397 19.8242 7.86101 19.9994 8.50012 20Z" fill="white"/>
</svg>

<svg xmlns="http://www.w3.org/2000/svg" fill="none" viewBox="0 0 17 20"><path fill="#fff" d="m16.64 13.8-.21-.26c-.98-1.18-1.57-1.9-1.57-5.26 0-1.75-.4-3.17-1.22-4.25a5.78 5.78 0 0 0-2.52-1.86C10.74.87 9.7 0 8.5 0 7.31 0 6.26.87 5.88 2.17a.14.14 0 0 1-.04.03c-2.5 1.03-3.7 3.02-3.7 6.07 0 3.37-.6 4.09-1.57 5.27l-.21.27a1.58 1.58 0 0 0-.2 1.68c.27.58.85.94 1.51.94h13.66c.67 0 1.24-.36 1.52-.94a1.58 1.58 0 0 0-.2-1.68ZM8.5 20a3.52 3.52 0 0 0 3.14-1.97.18.18 0 0 0-.1-.15.17.17 0 0 0-.08-.02H5.54a.18.18 0 0 0-.15.08.18.18 0 0 0 0 .18A3.56 3.56 0 0 0 8.5 20Z"/></svg>
